X:1
T:Title
%%score { ( 1 4 5 ) | ( 2 3 ) }
L:1/8
M:4/4
K:F
V:1 treble nm="Grand Piano"
V:4 treble 
V:5 treble 
V:2 bass 
V:3 bass 
V:1
 z4 z[Q:1/4=94] F G>A | B2 A2 G2 F2 | A2 c2 c>c d>c | B2 A2 G2 F2 | %4
[M:17/16] E-<E[Ec]-<[Ec][Ec]3/2c=B>c |[M:4/4] [^Fd]2 [Fc]2 B2 AB | %6
 [EGc]2 [CEB]2 [CFA]>[A,F] [B,FG]>[CFA] | [DFc]>[DFB] [DFA]>[DFB] [B,D]2 [B,CE]2 |[M:3/4] [A,CF]6 | %9
[M:1/4] [CAc]>[CAc] |[M:4/4] [Ac]4 z4 | [Fd]6[K:bass][K:treble] z2 | %12
 [EGB]4 [CEG]2 (3[CEG][CFA][CGB] | c8 | [Af]2 [Ge]2 d2 cc | B2 A2 G2 d>d | %16
 c4 A2 (3[B,EG][CEA][B,DG] |[M:5/8] F-F- F3 |] %18
V:2
 z4 z [F,A,] [F,B,F]>[F,CF] | [F,DF]2 [F,CF]2 [F,B,E]2 [F,A,]2 | %2
 [F,CF]2 [F,A,F]2 [F,A,F]>[F,A,F] [F,B,F]>[F,A,F] | [G,CE]2 [F,CF]2 [E,G,C]2 [D,G,=B,]2 | %4
[M:17/16] [C,G,C]-<[C,G,C][C,G,]-<[C,G,][C,G,]3/2[F,A,F][F,_A,F]>[F,=A,F] | %5
[M:4/4] z4[K:treble] z2 .C2 | C,2 C,2 F,>F, F,>F, | B,,>B,, B,,>B,, B,,2 C,2 |[M:3/4] F,6 | %9
[M:1/4] F,>F, |[M:4/4] F,>F, (3F,F,F, [F,CF]2 (3[F,-C-F][F,CG]F, | %11
 [B,,B,]>B,, (3B,,D,F, B,2[K:treble] G>G | C4[K:bass] C,2 (3B,A,G, | z2 (3DCB, A,2 [F,C]>[F,C] | %14
 [D,D]2 [E,^C]2 [F,A,F]2 [^F,A,_E][F,A,E] | [G,B,D]2 [A,C_E]2 [B,D]2 [=B,F_A]>[B,=EA] | %16
 [CFA]4 [CF]2[K:bass] (3C,C,C, |[M:5/8] z2 B,/A,_A,/=A, |] %18
V:3
 x8 | x8 | x8 | x8 |[M:17/16] x17/2 |[M:4/4] [D,A,]2 [D,D]2[K:treble] [G,DG]2 [G,G]-[G,DG] | x8 | %7
 x8 |[M:3/4] x6 |[M:1/4] x2 |[M:4/4] x8 | x6[K:treble] x2 | x4[K:bass] x4 | F,6 z2 | x8 | x8 | %16
 x6[K:bass] x2 |[M:5/8] F,-F,- F,3 |] %18
V:4
 x8 | x8 | x8 | x8 |[M:17/16] x17/2 |[M:4/4] x8 | x8 | x8 |[M:3/4] x6 |[M:1/4] x2 | %10
[M:4/4] z z/ F/ (3FFF A2 (3AB[CAc] | z z/[K:bass] B,/ (3B,B,B, z2[K:treble] B>B | x8 | %13
 [CA]2 (3BAG F2 A>[Ac] | x8 | x8 | x8 |[M:5/8] A,2 D/DD/C |] %18
V:5
 x8 | x8 | x8 | x8 |[M:17/16] x17/2 |[M:4/4] x8 | x8 | x8 |[M:3/4] x6 |[M:1/4] x2 | %10
[M:4/4] F2 z2 z4 | x3/2[K:bass] x9/2[K:treble] x2 | x8 | x8 | x8 | x8 | x8 |[M:5/8] x5 |] %18

